X:1
T:The Ballad of Accounting
M:4/4
L:1/8
K:F
 AA| A A2 A B3A/2-G/2| A D3 z3 A/2A/2| A3/2 A/2 GF E/2 E3/2 A,2| FF AA G|\
 C2 A,2| DD DD F A2 F| GF D/2 C3/2 D4| D3/2 D/2 D3/2 E/2 FG F/2 E3/2|\
 DD DD|C-A, C| DD D3/2 D/2 F D2 F| E3/2 E/2 EF G3 A| AA AG AA AG| FD FE|\
 D4|
M:3/4
 E E2 F/2E/2 D2|
M:4/4
 E E2 F/2E/2 D3||
